X:1
T:Lord, You Alone Are Worthy!
T:Lord, You Alone Are Worthy!
T: Scott Werdebaugh, 2017
T: Scott Werdebaugh, 2017
T:© 2017  Scott Werdebaugh &amp; New Heart Music - May Be Freely Copied and Used for Christian worship or devotions, without alterations. All Other Rights Reserved.
T:© 2017  Scott Werdebaugh &amp; New Heart Music - May Be Freely Copied and Used for Christian worship or devotions, without alterations. All Other Rights Reserved.
C:Scott Werdebaugh, 2017
Z:© 2017  Scott Werdebaugh & New Heart Music - May Be Freely Copied and Used for
Z:Christian worship or devotions, without alterations. All Other Rights Reserved.
%%score ( 1 2 ) ( 3 4 )
L:1/8
Q:1/4=95
M:4/4
K:C
V:1 treble 
V:2 treble 
V:3 bass 
V:4 bass 
V:1
"^Worshipfully" [CE]4 [CE]2 [EG]2 | [CF]3 [CE] ([CE]3 [B,D]) | [B,D]4 z2 [B,D]2 | %3
w: Lord, You a-|lone are wor- *|thy, So|
 [CE]3 [EG] [DF]2 [CE][CE] | ([CE]3 [B,D]) [B,D]3 z | [CE]3 [EG] [DF]3 [CE] | %6
w: wor- thy of all my|prais- * es!|You a- lone are|
 ([CE]3 [B,D]) [B,D]2 [B,D][B,D] | [CE]3 [EG] [DF]3 [CE] | ([CE]3 [B,D]) [B,D]3 z | %9
w: wor- * thy Of all|hon- or and all|glo- * ry,|
 [CE]3 [EG] [DF]3 [CE] | ([CE]3 [B,D]) [B,D]2 [B,D][B,D] | [CE]4 [DF]4 | [FA]4 B4 | %13
w: You a- lone are|wor- * thy! And I|wor- ship|You a-|
 [Ec]4 z2 ([Ec][DB]) | [CA]3 [Ec] [DB]3 [CA] | ([CA]3 [DB]) [Ec]3 [Ec]/[DB]/ | %16
w: lone, O *|God of my sal-|va- * tion! You’re my|
 [CA]2 [Ec][Ec] ([Bd]3 [Fc]) | [Ec]4 z2 ([Ec][DB]) | [CA]3 [Ec] [Ec]2 [DB]2 | [Ec]4 z2 [CE]2 | %20
w: Bless- èd Re- deem- *|er, My *|Sav- ior and my|Lord! I|
 [B,D]3 [CE] [CE]3 [CE] | [B,D]3 [CE] [CE]3 [EG]/[EG]/ | [DF]3 [EG] [CA]3 [DB] | [Ec]4 z2 [Ec]2 | %24
w: wor- ship You, and|You a- lone, Ho- ly|Word of Truth and|Life! I|
 [Bd]3 [Ac] [GB]3 [FA] | [EG]4 z2 [DB]2 | [CA]3 [DB] [Ec]3 [DB] | %27
w: wor- ship You a-|lone, For|You a- lone are|
 ([DB]3 [Ec]) [Ec]2 !breath![DB]2 | [Ac]4 ([FA]2 [GB]2) | [Ac]4 B4 | [Ec]6 z2 |] %31
w: wor- * thy, To|You I *|owe my|all!|
V:2
 x8 | x8 | x8 | x8 | x8 | x8 | x8 | x8 | x8 | x8 | x8 | x8 | x4 (G2 F2) | x8 | x8 | x8 | x8 | x8 | %18
 x8 | x8 | x8 | x8 | x8 | x8 | x8 | x8 | x8 | x8 | x8 | x4 (G2 F2) | x8 |] %31
V:3
 [C,G,]4 [C,G,]2 [C,C]2 | [F,A,]3 [C,G,] G,4 | [G,,G,]4 z2 [G,,G,]2 | %3
 [C,G,]3 [C,C] [G,B,]2 [C,G,][C,G,] | G,4 [G,,G,]3 z | [C,G,]3 [C,C] [G,B,]3 [C,G,] | %6
 G,4 [G,,G,]2 [G,,G,][G,,G,] | [C,G,]3 [C,C] [G,B,]3 [C,G,] | G,4 [G,,G,]3 z | %9
 [C,G,]3 [C,C] [G,B,]3 [C,G,] | G,4 [G,,G,]2 [G,,G,][G,,G,] | [C,G,]4 [G,B,]4 | [F,C]4 [G,,G,]4 | %13
 [C,G,]4 z2 G,2 | [F,A,]3 [C,G,] [G,,G,]3 [F,A,] | ([F,A,]3 [G,,G,]) [C,G,]3 [C,G,]/[G,,G,]/ | %16
 [F,A,]2 [C,G,][C,G,] ([G,,G,]3 [F,,A,]) | [C,G,]4 z2 G,2 | [F,,A,]3 [C,G,] [C,G,]2 [G,,G,]2 | %19
 [C,G,]4 z2 [C,G,]2 | [G,,G,]3 [C,G,] [C,G,]3 [C,G,] | [G,,G,]3 [C,G,] [C,G,]3 [C,C]/[C,C]/ | %22
 [G,B,]3 [C,C] [F,A,]3 [G,,G,] | [C,G,]4 z2 [C,G,]2 | [G,,G,]3 [F,A,] [G,D]3 [F,C] | %25
 [C,C]4 z2 [G,,G,]2 | [F,A,]3 [G,,G,] [C,G,]3 [G,,G,] | G,4 [C,G,]2 [G,,G,]2 | %28
 [F,A,]4 ([F,C]2 [G,D]2) | [F,C]4 [G,,G,]4 | [C,G,]6 z2 |] %31
V:4
 x8 | x4 (C,3 G,,) | x8 | x8 | (C,3 G,,) x4 | x8 | (C,3 G,,) x4 | x8 | (C,3 G,,) x4 | x8 | %10
 (C,3 G,,) x4 | x8 | x8 | x6 (C,G,,) | x8 | x8 | x8 | x6 (C,G,,) | x8 | x8 | x8 | x8 | x8 | x8 | %24
 x8 | x8 | x8 | (G,,3 C,) x4 | x8 | x8 | x8 |] %31

